storage/app/icons/phosphoricons/duotone/pi-duotone.svg

<svg xmlns="http://www.w3.org/2000/svg" fill="currentColor" viewBox="0 0 256 256"><path d="M196 200H88V64h80v108a28 28 0 0 0 28 28" opacity=".2"/><path d="M232 172a36 36 0 0 1-72 0V72H96v128a8 8 0 0 1-16 0V72h-8a40 40 0 0 0-40 40 8 8 0 0 1-16 0 56.06 56.06 0 0 1 56-56h152a8 8 0 0 1 0 16h-48v100a20 20 0 0 0 40 0 8 8 0 0 1 16 0"/></svg>

<svg xmlns="http://www.w3.org/2000/svg" viewBox="0 0 256 256" fill="currentColor"><path d="M196,200H88V64h80V172A28,28,0,0,0,196,200Z" opacity="0.2"/><path d="M232,172a36,36,0,0,1-72,0V72H96V200a8,8,0,0,1-16,0V72H72a40,40,0,0,0-40,40,8,8,0,0,1-16,0A56.06,56.06,0,0,1,72,56H224a8,8,0,0,1,0,16H176V172a20,20,0,0,0,40,0,8,8,0,0,1,16,0Z"/></svg>
